X:20
T: WILL ICH IN MEIN GAERTCHEN GEHN
N: E0004
O: Europa, Mitteleuropa, Deutschland
R: Sage, Maerchen -, Zauber - Lied
M: 2/4
L: 1/16
K: G
 | G2G2F2G2 | A2ABG2z2 |
c3BA2d2 | B4G2z2 |
d2edc2dc | B2cBA2z2 |
B2c2d2ec | B2A2G2z2

@@@ Tune index: 3670
